packages/kaspersky-hexa-ui-icons/src/iconsSVGs/24/UserGroup.svg

<svg width="24" height="24" viewBox="0 0 24 24" fill="none" xmlns="http://www.w3.org/2000/svg">
<path fill-rule="evenodd" clip-rule="evenodd" d="M12.3971 7.38346C12.3971 5.42759 13.9862 3.84668 15.9408 3.84668C17.8954 3.84668 19.4845 5.42759 19.4845 7.38346C19.4845 9.33934 17.8954 10.9202 15.9408 10.9202C13.9862 10.9202 12.3971 9.33934 12.3971 7.38346ZM15.9408 5.84668C15.0857 5.84668 14.3971 6.53729 14.3971 7.38346C14.3971 8.22964 15.0857 8.92024 15.9408 8.92024C16.7959 8.92024 17.4845 8.22964 17.4845 7.38346C17.4845 6.53729 16.7959 5.84668 15.9408 5.84668Z" fill="black"/>
<path d="M15.6212 20.1534H19.8436C20.9482 20.1534 21.8436 19.258 21.8436 18.1534V16.1534C21.8436 13.9442 20.0528 12.1534 17.8436 12.1534H14.6284C15.1449 12.7305 15.5514 13.4081 15.8148 14.1534H17.8436C18.9482 14.1534 19.8436 15.0488 19.8436 16.1534V18.1534H16.1562C16.1562 18.8819 15.9615 19.565 15.6212 20.1534Z" fill="black"/>
<path fill-rule="evenodd" clip-rule="evenodd" d="M4.29163 7.4058C4.29163 5.44992 5.88076 3.86902 7.83532 3.86902C9.78988 3.86902 11.379 5.44992 11.379 7.4058C11.379 9.36168 9.78988 10.9426 7.83532 10.9426C5.88076 10.9426 4.29163 9.36168 4.29163 7.4058ZM7.83532 5.86902C6.98019 5.86902 6.29163 6.55962 6.29163 7.4058C6.29163 8.25198 6.98019 8.94258 7.83532 8.94258C8.69045 8.94258 9.37902 8.25198 9.37902 7.4058C9.37902 6.55962 8.69045 5.86902 7.83532 5.86902Z" fill="black"/>
<path fill-rule="evenodd" clip-rule="evenodd" d="M6.15625 12.1534C3.94711 12.1534 2.15625 13.9442 2.15625 16.1534V18.1534C2.15625 19.258 3.05168 20.1534 4.15625 20.1534H12.1562C13.2608 20.1534 14.1562 19.258 14.1562 18.1534V16.1534C14.1562 13.9442 12.3654 12.1534 10.1562 12.1534H6.15625ZM4.15625 16.1534C4.15625 15.0488 5.05168 14.1534 6.15625 14.1534H10.1562C11.2608 14.1534 12.1562 15.0488 12.1562 16.1534V18.1534H4.15625V16.1534Z" fill="black"/>
</svg>

<svg xmlns="http://www.w3.org/2000/svg" width="24" height="24" fill="none" viewBox="0 0 24 24"><path fill="#000" fill-rule="evenodd" d="M12.3971 7.3835c0-1.956 1.5891-3.5368 3.5437-3.5368s3.5437 1.5809 3.5437 3.5368-1.5892 3.5367-3.5437 3.5367-3.5437-1.5809-3.5437-3.5367m-8.1055.0223c0-1.9559 1.5892-3.5368 3.5437-3.5368S11.379 5.45 11.379 7.4058s-1.5891 3.5368-3.5437 3.5368-3.5437-1.581-3.5437-3.5368m11.6492-1.5591c-.8551 0-1.5437.6906-1.5437 1.5368s.6886 1.5367 1.5437 1.5367 1.5437-.6906 1.5437-1.5367-.6886-1.5368-1.5437-1.5368m-8.1055.0223c-.8551 0-1.5437.6906-1.5437 1.5368s.6886 1.5368 1.5437 1.5368S9.379 8.252 9.379 7.4058 8.6905 5.869 7.8353 5.869m-1.679 6.2844c-2.2092 0-4 1.7908-4 4v2c0 1.1046.8954 2 2 2h7.9999c1.1046 0 2-.8954 2-2v-2c0-2.2092-1.7908-4-4-4zm9.4649 8h4.2224c1.1046 0 2-.8954 2-2v-2c0-2.2092-1.7908-4-4-4h-3.2152a6 6 0 0 1 1.1864 2h2.0288c1.1046 0 2 .8954 2 2v2h-3.6874a3.98 3.98 0 0 1-.535 2m-11.465-4c0-1.1046.8955-2 2-2h4c1.1046 0 2 .8954 2 2v2h-8z"/></svg>
